symbols/web/sd_card/materialsymbolsrounded/sd_card_wght100gradN25_48px.svg

<svg xmlns="http://www.w3.org/2000/svg" height="48" width="48"><path d="M20.4 21.3q.25 0 .4-.15.15-.15.15-.45v-5.4q0-.15-.175-.325-.175-.175-.375-.175-.25 0-.4.175-.15.175-.15.325v5.4q0 .3.15.45.15.15.4.15Zm5.5 0q.25 0 .4-.15.15-.15.15-.45v-5.4q0-.15-.175-.325-.175-.175-.375-.175-.25 0-.4.175-.15.175-.15.325v5.4q0 .3.15.45.15.15.4.15Zm5.45 0q.25 0 .4-.15.15-.15.15-.45v-5.4q0-.15-.175-.325-.175-.175-.375-.175-.25 0-.4.175-.15.175-.15.325v5.4q0 .3.15.45.15.15.4.15ZM13.3 41.4q-1.1 0-1.9-.8-.8-.8-.8-1.9V18.2q0-.55.2-1.05t.65-.9l8.8-8.85q.4-.4.9-.6.5-.2 1.05-.2h12.5q1.1 0 1.9.8.8.8.8 1.9v29.4q0 1.1-.8 1.9-.8.8-1.9.8Zm0-1.1h21.4q.6 0 1.1-.5.5-.5.5-1.1V9.3q0-.6-.5-1.1-.5-.5-1.1-.5H21.6l-9.9 9.9v21.1q0 .6.5 1.1.5.5 1.1.5Zm0 0h-1.6 24.6-1.6Z"/></svg>

<svg xmlns="http://www.w3.org/2000/svg" height="48" width="48"><path d="M20.4 21.3Q20.65 21.3 20.8 21.15Q20.95 21 20.95 20.7V15.3Q20.95 15.15 20.775 14.975Q20.6 14.8 20.4 14.8Q20.15 14.8 20 14.975Q19.85 15.15 19.85 15.3V20.7Q19.85 21 20 21.15Q20.15 21.3 20.4 21.3ZM25.9 21.3Q26.15 21.3 26.3 21.15Q26.45 21 26.45 20.7V15.3Q26.45 15.15 26.275 14.975Q26.1 14.8 25.9 14.8Q25.65 14.8 25.5 14.975Q25.35 15.15 25.35 15.3V20.7Q25.35 21 25.5 21.15Q25.65 21.3 25.9 21.3ZM31.35 21.3Q31.6 21.3 31.75 21.15Q31.9 21 31.9 20.7V15.3Q31.9 15.15 31.725 14.975Q31.55 14.8 31.35 14.8Q31.1 14.8 30.95 14.975Q30.8 15.15 30.8 15.3V20.7Q30.8 21 30.95 21.15Q31.1 21.3 31.35 21.3ZM13.3 41.4Q12.2 41.4 11.4 40.6Q10.6 39.8 10.6 38.7V18.2Q10.6 17.65 10.8 17.15Q11 16.65 11.45 16.25L20.25 7.4Q20.65 7 21.15 6.8Q21.65 6.6 22.2 6.6H34.7Q35.8 6.6 36.6 7.4Q37.4 8.2 37.4 9.3V38.7Q37.4 39.8 36.6 40.6Q35.8 41.4 34.7 41.4ZM13.3 40.3H34.7Q35.3 40.3 35.8 39.8Q36.3 39.3 36.3 38.7V9.3Q36.3 8.7 35.8 8.2Q35.3 7.7 34.7 7.7H21.6L11.7 17.6V38.7Q11.7 39.3 12.2 39.8Q12.7 40.3 13.3 40.3ZM13.3 40.3Q12.7 40.3 12.2 40.3Q11.7 40.3 11.7 40.3H21.6H34.7Q35.3 40.3 35.8 40.3Q36.3 40.3 36.3 40.3Q36.3 40.3 35.8 40.3Q35.3 40.3 34.7 40.3Z"/></svg>
